assets/Flat shoe/Flat/flat_shoe_flat.svg

<svg width="32" height="32" viewBox="0 0 32 32" fill="none" xmlns="http://www.w3.org/2000/svg">
<path d="M2 28L10 27V29.5C10 29.7761 9.77614 30 9.5 30H2.5C2.22386 30 2 29.7761 2 29.5V28Z" fill="#0074BA"/>
<path d="M2 28H11.9692C12.575 28 13.1031 28.4123 13.25 29C13.3969 29.5877 13.925 30 14.5308 30H29.5C29.7761 30 30.0009 29.7759 29.9983 29.4998C29.9819 27.7763 29.8089 26.4045 28 25.5C26.6819 24.841 25.1465 24.3991 24.2529 24.1744C23.7703 24.0531 23.2636 24.1419 22.837 24.3978L22.7824 24.4306C22 25 21.5762 25.9619 20.5 26.5C19.5 27 17.5 26.5 17.5 26.5L5 22.5C4.40279 22.3009 4.19907 22.0972 4 21.5L3.51038 21.0311C3.59793 21.0149 2 21.6704 2 22.8499V28Z" fill="#00A6ED"/>
<path d="M22.7823 24.4306C22.4076 25.1233 21.5761 26.4619 20.4999 27C19.4999 27.5 17.4999 27 17.4999 27L4.94857 22.8162C4.35136 22.6172 3.88273 22.1485 3.68366 21.5513L3.51025 21.0311C3.62032 21.0107 3.73381 21 3.84979 21C3.94921 21 4.04797 21.016 4.14229 21.0475L18.1711 25.7237C18.7124 25.9042 19.2939 25.9265 19.8474 25.7881L20.9999 25.5L22.7823 24.4306Z" fill="#0074BA"/>
</svg>

<svg xmlns="http://www.w3.org/2000/svg" width="32" height="32" fill="none"><path fill="#0074BA" d="m2 28 8-1v2.5a.5.5 0 0 1-.5.5h-7a.5.5 0 0 1-.5-.5V28Z"/><path fill="#00A6ED" d="M2 28h9.97a1.32 1.32 0 0 1 1.28 1c.147.588.675 1 1.28 1H29.5c.276 0 .5-.224.498-.5-.016-1.724-.19-3.096-1.998-4-1.318-.659-2.854-1.1-3.747-1.326a1.868 1.868 0 0 0-1.416.224l-.055.033C22 25 21.576 25.96 20.5 26.5c-1 .5-3 0-3 0L5 22.5c-.597-.2-.8-.403-1-1l-.49-.469c.088-.016-1.51.64-1.51 1.819V28Z"/><path fill="#0074BA" d="M22.782 24.43c-.374.693-1.206 2.032-2.282 2.57-1 .5-3 0-3 0L4.949 22.816a2 2 0 0 1-1.265-1.265l-.174-.52c.11-.02.224-.031.34-.031.1 0 .198.016.292.047l14.03 4.677a3 3 0 0 0 1.675.064L21 25.5l1.782-1.07Z"/></svg>
